X:1
T:Nocturne Op.72. No.1.
T:Nocturne
T:F.Chopin,Op.72.No.1
C:F.Chopin
%%score { ( 1 2 4 ) | ( 3 5 ) }
L:1/8
Q:1/4=60
M:4/4
K:G
V:1 treble nm="Piano" snm="Pno."
V:2 treble 
V:4 treble 
V:3 bass 
V:5 bass 
V:1
!p!"^Andante" z8[Q:1/4=66][Q:1/4=69]"^( )" |{/B} (g6 fe | ^d6 e>c | B3 F!>(! [Ac][GB][FA][EG]!>)! | %4
!<(! [^DF]2!<)!!p!!>(! [EG]2!p! [DF])!>)! z[Q:1/4=66] z2 |!p![Q:1/4=69] (B2 B4 ^c2 | %6
!mp! d4[Q:1/4=67] d2[Q:1/4=65] d2 |[Q:1/4=69] ^c4 c4[Q:1/4=66][Q:1/4=63][Q:1/4=60] | %8
!p![Q:1/4=69] B2)!<(! (^D2"^rit."[Q:1/4=66] E2[Q:1/4=63] F2!<)! | %9
"^a tempo"[Q:1/4=69]!mf! ([Gg]6) [Ff][Ee] | %10
 [^D^d]4-[Q:1/4=67]!<(! (3[Dd][Ee][Ff][Q:1/4=65] (3[Ff][Gg][Aa]!<)! | %11
!mf![Q:1/4=69] b3) (B[Q:1/4=67] B2[Q:1/4=65] (3BAG | %12
[Q:1/4=69] [^DF]2[Q:1/4=64] (3[EG-][Ge][Ge][Q:1/4=69]!>(! [F^d]4)!>)! |!p! (=d6 c2- | %14
 cBTAG!p! G2) (GG |!p!!<(! A2 AA!p! A2) AA!<)! |!mp!"_cresc." B2 BB!mf! B2 [B^c]2 | %17
!f! [Bd]4[Q:1/4=67] ^c4[Q:1/4=65] |!mp![Q:1/4=69] (^d4!>(! e2 B2!>)! |!mp! ^A4 B4- | %20
 B4[Q:1/4=66] ^A4[Q:1/4=63] |[Q:1/4=69] B4) z4 |!mp! ([B^d]4{/[A^c]} [Ac]4 | %23
{/[^GB]} [GB]6)"_cresc." ([A^c]2 | [^A^c]3 [B^d][Q:1/4=66] [ce][df][Q:1/4=63][e=g][eg] | %25
!mf![Q:1/4=69] [eg]2 [^df]4) z2 |!f! ([^DB^d]4 [DA^c]3 [DAB] | ^c2 B4) (B2 | ^A8 | %29
!mp! [F=A]6)[Q:1/4=60] z2[Q:1/4=50][Q:1/4=40][Q:1/4=65][Q:1/4=56] | %30
[Q:1/4=69]"^a tempo"!f!{/B} g6 (TB/^A/B/e/ | ^d6)!<(! (6:4:6(Te/^d/e/f/g/a/!<)! | %32
 b6)!<(! (6:4:6(Tb/^c'/^d'/e'/f'/[Q:1/4=40]g'/!<)! | %33
[Q:1/4=69]!f!{/^d} !>!f'2[Q:1/4=46]!>(! (8:4:8e'/^c'/[Q:1/4=60]^a/g/e/[Q:1/4=66]^c/^A/!>)!E/[Q:1/4=69]!mf!"_dim." B2)[Q:1/4=66] z2[Q:1/4=63] | %34
[Q:1/4=60]!mp! (D2[Q:1/4=56]{EFGA} (3BBB[Q:1/4=60] B2[Q:1/4=40]!<(! (10:8:10T^A/4^G/4[Q:1/4=60]A/4B/4[Q:1/4=63]^c/4d/4e/4[Q:1/4=66]f/4^g/4^a/4!<)! | %35
[Q:1/4=69]!mf! b4)"^"!8va(! (b4[Q:1/4=66][Q:1/4=63]{^ab^c'}[Q:1/4=60] | %36
 !trill(!T^c'4[Q:1/4=66] !trill(!Tc'2!mp![Q:1/4=46]!<(! (11:8:11^b/4c'/4[Q:1/4=52]d'/4^d'/4e'/4^e'/4[Q:1/4=63]f'/4g'/4^g'/4[Q:1/4=66]=a'/4^a'/4!<)![Q:1/4=63][Q:1/4=60] | %37
!mf![Q:1/4=69] [bb']2)!8va)! (^D2[Q:1/4=66] E2[Q:1/4=63] F2[Q:1/4=60] | %38
!f! ([Gg]6) [Ff][Ee][Q:1/4=69] | %39
 [^D^d]4-!<(! (3[Dd][Ee][Ff][Q:1/4=66] (3:2:4[Ff][Gg][Q:1/4=63]z/[Aa]/!<)! | %40
[Q:1/4=66]!f! (3[Bb][Bb][Bb] (3[Bb])(!>!B!>![AB][Q:1/4=63]!>(! (3[AB][^GB]!>)![=GB]!>(! (3[GB][FA][EG]!>)! | %41
[Q:1/4=69] [^DF]2[Q:1/4=64] (3[EG-][Ge][Ge][Q:1/4=69] [F^d]4) | (^d6 d2 | e4 e2 e2 | %44
 g4({fe)} e2 ^d2 | e6) z2 |!p! ([e^g]4 [df]4 | [^ce]6) ([df]2 | %48
 [^df]3 [e^g][Q:1/4=66]!<(! [fa][gb][Q:1/4=63][a=c'][ac']!<)! | %49
[Q:1/4=66]!p! [ac']2[Q:1/4=69] [^gb]2)!p! z4 | %50
[Q:1/4=69] [e^g]2-!p! (3[eg][eg][eg][Q:1/4=66] gf-[Q:1/4=63] (3[df][df][df] | %51
[Q:1/4=60]{/f} e4[Q:1/4=69] z4 | (^d8[Q:1/4=66][Q:1/4=63] |[Q:1/4=69]!p! e6) z2 | %54
!pp! [^DFA]6[Q:1/4=66]!>(! [DFA]2 | %55
[Q:1/4=63] [E^G]2[Q:1/4=60] z2[Q:1/4=50] z4[Q:1/4=40][Q:1/4=30][Q:1/4=20] | %56
[K:bass][Q:1/4=30]!pp! !>!E,,6!>)! z2 |] %57
V:2
 x4 x2 (3x2 x/ x/ | x8 | x8 | x8 | x8 | =D2 ^E2"_cresc." F2 ^A2 | B4 B4 | B4 ^A4 | B2 x2 x4 | x8 | %10
 x8 | B3 A (3A^G=G (3GFE | x8 | (F2 G=F E4 | =F4 E4) | [EG]4 =F4 | [^FA]4 G4 | F4 B2 ^A2 | %18
 !>!=A4 G4 | (G2 FE D4 | ^C6 =E2 | ^D4) x4 | x8 | x8 | x6 ^A2 | B4 x4 | x8 | [E^G]8 | %28
 ([EG]3"_dim." [^DF] [EG][DF][EG][EG] | !>!E2 ^D4) (3:2:4x2 x/ x/4x/4 | %30
 x6 (5:4:5x/8x/8x/8x/8x/8 x/ x | x6 (15:8:8(1:1:5x/8x/8x/8x/8x/8 x/ x x | %32
 x6 (9:4:8(1:1:3x/4x/4x/4 x/ x x/ x/4 x/4 | x2 x2 ^D2 x2 | %34
 x-(3:2:2x/x/4(3x/4x/4x/4 (3xxx x2 (30:16:5(1:1:3x/8x/8x/8 x/4 x2 | %35
 x4!8va(! (12:6:10(1:1:4x/!trill(!Tx/x/x/x/4x/4x/4x/4x/4x/4 (3:2:10x/4x/4x/4x/4x/4x/4(4:3:4!trill)!x/x/x/x/ | %36
 b4 ^a4 | x2!8va)! x6 | x8 | x8 | x8 | x8 | [FA]8 | [EG]4 [EG]4 | [GB]4 !>![FAB-]4 | [^GB]6 x2 | %46
 x6{/[^ce]} x2 | x8 | x6 ^d2 | e4 x4 | z2 ^G4 G2 | [A^c]4 x4 | ([Ac]3 [^GB] [Ac][GB][Ac][Ac] | %53
 [^GB]6) x2 | x8 | x8 |[K:bass] x8 |] %57
V:3
"^molto legato"!ped! (3(E,,B,,G, (3E,CB,)!ped-up!!ped! (3(E,,B,,G, (3E,C!ped-up!!ped!B,) | %1
 (3E,,B,,G, (3E,CB,!ped-up!!ped! (3E,,B,,G, (3E,CB,!ped-up! | %2
!ped! (3F,,B,,A, (3F,CB,!ped-up!!ped! (3G,,B,,G, (3E,CB,!ped-up! | %3
!ped! (3^D,,B,,A, (3F,CB,!ped-up!!ped! (3E,,B,,G, (3E,CB,!ped-up! | %4
!ped! (3B,,,B,,B, (3^A,G,^A,,!ped-up!!ped! (3B,,B,,,B,, (3^D,F,B,!ped-up! | %5
!ped! (3G,,=D,B, (3G,=ED!ped-up!!ped! (3F,,F,^C (3ECF,!ped-up! | %6
!ped! (3B,,F,D (3B,GF!ped-up!!ped! (3^ED"^dim."B, (3^G,^E,^E,,!ped-up! | %7
!ped! (3F,,F,^C (3=E=GF!ped-up!!ped! (3EC^A, (3F,F,,F,,,!ped-up! | %8
!ped! (3B,,,B,,F, (3=A,=CB,!ped-up!!ped! (3G,CB, (3F,CB,!ped-up! | %9
!ped! (3E,,B,,G, (3E,CB,!ped-up!!ped! (3E,,B,,G, (3E,CB,!ped-up! | %10
!ped! (3F,,B,,A, (3F,CB,!ped-up!!ped! (3G,,B,,G, (3E,CB,!ped-up! | %11
!ped! (3^D,,B,,A, (3F,CB,!ped-up!!ped! (3E,,B,,G, (3E,CB,!ped-up! | %12
!ped! (3B,,,B,,B, (3^A,B,,B,,,!ped-up!!ped! (3B,,B,,,B,, (3^D,F,B,!ped-up! | %13
!ped! (3B,,B,,,B,, (3=D,G,B,!ped-up!!ped! (3CB,C (3G,E,C,!ped-up! | %14
!ped!!>(! (3G,,D,G, (3B,ED!ped-up!!>)!!ped! (3CC,E, (3G,CE!ped-up! | %15
"^poco                a                  poco"!ped! (3^C^C,E, (3A,=FE!ped-up!!ped! (3D,,D,=F, (3A,ED!ped-up! | %16
!ped! (3^D,,^D,^F, (3B,GF!ped-up!!ped! (3E,,E,G, (3B,FE!ped-up! | %17
!ped! (3F,,F,=D (3B,GF!ped-up!!ped!!>(! (3F,,F,D!>)! (3^C!ped-up!!ped!GF!ped-up! | %18
!ped! (3B,,,B,,F, (3B,GF!ped-up!!ped! (3E,,B,,G, (3B,FE!ped-up! | %19
!ped! (3F,,^C,E, (3^A,=D^C!ped-up!!ped! (3F,,D,F, (3B,A,B,!ped-up! | %20
!ped! (3F,,^C,^E, (3F,=A,G,!ped-up!!ped! (3F,,C,E, (3F,^E,F,!ped-up! | %21
!ped! (3B,,,F,,F, (3^D,^C,B,,!ped-up!!ped! (3B,,,F,,F, (3D,C,B,,!ped-up! | %22
!ped! (3B,,,F,,F, (3^D,^C,B,,!ped-up!!ped! (3B,,,F,,F, (3D,C,B,,!ped-up! | %23
!ped! (3B,,,B,,^G, (3E,^C,B,,!ped-up!!ped! (3B,,,B,,G, (3E,C,B,,!ped-up! | %24
!ped! (3B,,,B,,G, (3E,^C,B,,!ped-up!!ped! (3B,,,B,,G, (3E,C,B,,!ped-up! | %25
!ped!!>(! (3B,,,F,,F, (3^D,!>)!^C,B,,!ped-up!!mp!!ped! (3B,,,F,,F, (3D,C,B,,!ped-up! | %26
!ped! (3B,,,F,,F, (3^D,^C,B,,!ped-up!!ped! (3B,,,F,,F, (3D,C,B,,!ped-up! | %27
!ped! (3B,,,B,,^G, (3E,^C,B,,!ped-up!!ped! (3B,,,B,,G, (3E,C,B,,!ped-up! | %28
!ped! (3B,,,B,,=G, (3E,^C,B,,!ped-up!!ped! (3B,,,B,,G, (3E,C,B,,!ped-up! | %29
!ped! (3B,,,!<(!B,,F, (3A,=CB,!ped-up!"^rit."!ped! (3A,F,^D, (3=C,!<)!B,,!ped-up!B,,, | %30
!ped! (3E,,B,,G, (3E,CB,!ped-up!!ped! (3E,,B,,G, (3E,CB,!ped-up! | %31
!ped! (3F,,B,,A, (3F,CB,!ped-up!!ped! (3G,,B,,G, (3E,CB,!ped-up! | %32
!ped! (3^D,,B,,A, (3F,CB,!ped-up!!ped! (3E,,B,,G, (3E,=CB,!ped-up! | %33
!ped! (3B,,,B,,F,!ped-up!!ped! (3G,B,,^A,!ped-up!!ped! (3B,B,,^A,,!ped-up!!ped! (3B,,^D,F,!ped-up! | %34
!ped! (3G,,=D,B, (3G,ED!ped-up!!ped! (3F,,F,D (3E^CF,!ped-up! | %35
!ped! (3B,,F,D (3B,GF!ped-up!!ped! (3^EDB, (3^E,D,^E,,!ped-up! | %36
!ped! (3F,,F,^C (3=EGF!ped-up!!ped! (3EC^A, (3F,F,,F,,,!ped-up! | %37
!ped! (3B,,,B,,F,!<(! (3=A,=CB,!ped-up!!ped! (3G,CB,!<)!!ped-up!!ped! (3F,CB,!ped-up! | %38
!ped! (3E,,B,,G, (3E,CB,!ped-up!!ped! (3E,,B,,G, (3E,CB,!ped-up! | %39
!ped! (3F,,B,,A, (3F,CB,!ped-up!!ped! (3E,,B,,G, (3E,CB,!ped-up! | %40
!ped! (3^B,,,B,,B, (3F,CB,!ped-up!!ped! (3E,,B,,G, (3E,CB,!ped-up! | %41
!ped! (3B,,,B,,B, (3^A,B,,B,,,!ped-up!!ped! (3B,,B,,,B,, (3^D,F,B,!ped-up! | %42
!>(!!ped! (3CC,B,, (3C,=D,C,!>)! (3B,,B,,,B,, (3F,CB,!ped-up! | %43
!ped! (3B,,B,,,B,, (3E,CB,!ped-up!!ped! (3^A,G,E, (3^A,,G,,^A,,,!ped-up! | %44
!ped! (3B,,,B,,E, (3G,CB,!ped-up!!ped! (3B,,^A,,B,, (3B,,,^A,,,B,,,!ped-up! | %45
!ped! (3E,,B,,B, (3^G,F,E,!ped-up!!ped! (3E,,B,,B, (3G,F,E,!ped-up! | %46
!ped! (3E,,B,,B, (3^G,F,E,!ped-up!!ped! (3E,,B,,B, (3G,F,E,!ped-up! | %47
!ped! (3E,,E,^C (3A,F,E,!ped-up!!ped! (3E,,E,C (3A,F,E,!ped-up! | %48
!ped! (3E,,E,=C (3A,F,E,!ped-up!!ped! (3E,,E,C (3A,F,E,!ped-up! | %49
!>(!!ped! (3E,,B,,B, (3^G,!>)!F,E,!ped-up!!ped! (3E,,B,,B, (3G,F,E,!ped-up! | %50
!ped! (3E,,B,,B, (3^G,F,E,!ped-up!!ped! (3E,,B,,B, (3G,F,E,!ped-up! | %51
!ped! (3E,,E,^C (3A,F,E,!ped-up!!ped! (3E,,E,C (3A,F,E,!ped-up! | %52
!ped!!>(! (3E,,E,=C!>)! (3A,F,E,!ped-up!!ped! (3E,,E,C (3A,F,E,!ped-up! | %53
!ped! (3E,,B,,B, (3^G,F,E,!ped-up!!ped! (3E,,B,,B, (3G,F,E,!ped-up! | %54
!ped! (3E,,E,C (3A,F,E, (3E,,E,C"^ca" (3A,F,E,!ped-up! | %55
!ped! (3E,,B,,B,"^lan" (3^G,F,E, (3E,,B,,B,"^do" (3G,F,E,-!ped-up! | %56
!ped! !>![E,^G,E]6!ped-up! z2 |] %57
V:4
 x8 | x8 | x8 | x8 | x8 | x8 | x8 | x8 | x8 | x8 | x8 | x8 | x8 | x8 | %14
 x2 (5:4:5x/4x/4x/4x/4x/4 x x4 | x8 | x8 | x8 | x8 | x8 | x8 | x8 | x2- (3x2- x/x/ x2- (3x2- x/x/ | %23
 x6 x2 | x8 | x8 | x8 | x8 | x8 | x7{/B} x | x8 | x8 | x8 | x8 | x8 | x4!8va(! x4 | %36
 (24:12:22(1:1:4x/x/x/x/x/4x/4x/4x/4x/4x/4 x/4x/4x/4x/4x/4x/4x/4x/4x/4x/4x/4!trill)!x/4 (12:6:9(1:1:4x/x/x/x/(1:1:5x/x/x/x/!trill)!x/ x2 | %37
 x2!8va)! x6 | x8 | x8 | x8 | x8 | x8 | x8 | x3 x/x/ x4 | x8 | x4 x2- (3x2- x/x/ | x6 x2 | x8 | %49
 x8 | x4 d2- x2 | (3:2:2x x2- x2 x4 | x8 | x8 | x8 | x8 |[K:bass] x8 |] %57
V:5
 x8 | x8 | x8 | x8 | x8 | x8 | x8 | x8 | x8 | x8 | x8 | x8 | x8 | x8 | x8 | x8 | x8 | x8 | x8 | %19
 x8 | x8 | x8 | x8 | x8 | x8 | x8 | x8 | x8 | x8 | x8 | x8 | x8 | x8 | x2 G,2 x4 | x8 | x8 | %36
 x481/60 | x8 | x8 | x8 | x8 | x8 | x8 | x8 | x8 | x8 | x8 | x8 | x8 | x8 | x8 | x8 | x8 | x8 | %54
 x8 | x8 | x8 |] %57

